X:140
T: Return to Miltown
S: "Traditional Irish Music" (K.Tweed)
Z: B.Black
L: 1/8
M: 4/4
R: reel
K: Dm
D2 D2 ADFD|CGEC GCEC|DA, A,2 DEFD|CD (3EFG AcGE|
D2 D2 ADFD|CGEC GCEC|[F3A3]D [G3E3]D|1 CD (3EFG AcGE :|2\
CD (3EFG AcGc||
K: D
d3 e f2 ed|cdef gece|dcda fded|cAGE FD (3FGA|
dAde faed|cdef g3 e|fafd eged|1 cAGE FD (3FGA :|2\
cAGE FDDC||
